X:10853
T:Miss Bruce Jig
M:6/8
L:1/8
K:D
A/G/|FAd dcd|Adf fef|afd afd|cee e2 f/g/|!
afd dcd|Bdg b2 g|f/g/af gec|edc d2:|!
|:f/g/|afd dcB|ABA A2 e/f/|gfg afd|cee e2 f/g/|!
afd dcd|Bdg b2 g|f/g/af gec|edc d2:|!
